X:1
T:Title
%%score { ( 1 3 ) | ( 2 4 ) }
L:1/8
Q:1/4=96
M:4/4
K:F
V:1 treble nm="Grand Piano"
V:3 treble 
V:2 bass 
V:4 bass 
V:1
 C3 D F3 A | [Ec][Ec][Ed][Ec] c2 A2 | A3 F B3 A | AFEF [EG]4 | C3 D F3 A | %5
w: Albert~Allen~Ketchum * * *|||||
 [Ec][EB][EA][E_A] =A2 c2 | d3 [Fd] [Fc]2 F2 | [FA][EB][EG][EA] F4 | A2 A2 A>G F>A | c2 c6 | %10
w: |||||
 A2 A2 A>G F>A | G8 | [EG]2 [EG]2 G>F E>F | [EG]2 [EG]6 | [Ec]2 [Fc]2 [Gc]>[GB] [FA]>[EG] | F8 | %16
w: ||||||
 D2 [DF]2 [DG]>[DF] [^CE]>[DF] | D4 C4 | D2 [DF]2 [DG]>[DF] [^CE]>[DF] | [CA]6 [CFA]>[CGB] | %20
w: ||||
 [FAc]4- [FAc][CFA][DFB][CFA] | [DFG]2 [Fd]4 F[FG] | [FA]2 [Fc]2 [FA]2 [EG]2 | [CF]6 z2 |] %24
w: ||||
V:2
 [F,A,]3 [F,B,] [F,A,]3 [F,C] | [C,G,][C,C][C,B,][C,B,] [F,A,F]2 [F,CF]2 | %2
 [F,CF]3 [F,A,][K:treble] [F,DF]3 [F,CF] | [G,=B,F][G,B,D][G,B,D][K:bass][G,B,D] [C,_B,]4 | %4
 [F,A,]3 [F,B,] [F,A,]3 [F,C] | [C,G,][C,C][C,C][C,C][K:treble] [F,CF]2 [A,CF]2 | %6
 [B,F]3[K:bass] [B,,B,] [C,A,]2 [D,=B,]2 | [C,C][C,C][C,B,][C,C] [F,A,]4 | %8
 [F,CF]2 [F,CF]2 [F,CF]>[F,B,F] [F,A,]>[F,CF] | [F,A,F]2 [F,A,F]6 | %10
 [F,CF]2 [F,CF]2 [F,CF]>[F,B,F] [F,A,]>[F,CF] | [C,C]2 [D,=B,]2 [C,_B,]4 | %12
 [C,B,]2 [C,B,]2 [C,B,C]>[C,A,C] [C,G,C]>[C,A,C] | [C,B,]2 [C,B,]6 | %14
 [C,B,]2 [D,B,]2 [E,B,]>[C,C] [C,C]>[C,B,] | A,2 z2 z4 | %16
 [B,,B,]2 [B,,B,]2 [B,,B,]>[B,,B,] [B,,B,]>[B,,B,] | [F,B,]4 [F,A,]4 | %18
 [B,,F,B,]2 [B,,B,]2 [B,,B,]>[B,,B,] [B,,B,]>[B,,B,] | F,6 F,>F, | F,4- F,F,F,F, | %21
 B,,2 [B,,B,]4 [=B,,G,][B,,G,] | [C,F,]2 [C,A,]2 [C,C]2 [C,B,]2 | [F,A,]6 z2 |] %24
V:3
 x8 | x8 | x8 | x8 | x8 | x8 | x8 | x8 | x8 | x8 | x8 | E2 F2 E4 | x8 | x8 | x8 | z2 D2 C4 | x8 | %17
 x8 | x8 | x8 | x8 | x8 | x8 | x8 |] %24
V:4
 x8 | x8 | x4[K:treble] x4 | x3[K:bass] x5 | x8 | x4[K:treble] x4 | x3[K:bass] x5 | x8 | x8 | x8 | %10
 x8 | x8 | x8 | x8 | x8 | F,2- [F,-B,]2 [F,A,]4 | x8 | x8 | x8 | x8 | x8 | x8 | x8 | x8 |] %24

